X:1
T:Guidance, 75.75 D
T:Lyman Foster Brackett, 1887
T:Guidance, 75.75 D
T:Public Domain
C:Lyman Foster Brackett, 1887
Z:Public Domain
%%score ( 1 2 ) ( 3 4 )
L:1/8
M:4/4
K:Db
V:1 treble 
V:2 treble 
V:3 bass 
V:4 bass 
V:1
 D2 [DE]2 [DF]2 [DB]2 | [DA]2 [DF]2 [CE]4 | [DF]2 [DB]2 [DA]2 [Fd]2 | [Ec]8 | %4
 [Fd]2 [DB]2 [DA]2 [DF]2 | [CA]2 [CG]2 [DF]4 | [DG]2 [DE]2 [DF]2 [CE]2 | D8 | %8
 [CE]2 [CE]2 [DE]2 [B,E]2 | [A,E]2 [CG]2 [DF]4 | [CE]2 [CE]2 [DF]2 [DB]2 | [CA]8 | %12
 D2 [DE]2 [DF]2 [DB]2 | [DA]2 [Fd]2 [Gd]4 | [FA]2 [DG]2 [CF]2 [CE]2 | [A,D]8 |] %16
V:2
 D2 x6 | x8 | x8 | x8 | x8 | x8 | x8 | D8 | x8 | x8 | x8 | x8 | D2 x6 | x8 | x8 | x8 |] %16
V:3
 [D,F,]2 [D,G,]2 [D,A,]2 [D,G,]2 | [D,F,]2 [D,A,]2 [A,,A,]4 | [D,A,]2 [D,G,]2 [D,F,]2 [D,A,]2 | %3
 [A,,A,]8 | [D,A,]2 [D,G,]2 [D,F,]2 [D,A,]2 | [A,,A,]2 [A,,A,]2 [D,A,]4 | %6
 [B,,G,]2 [__B,,G,]2 [A,,A,]2 [A,,G,]2 | [D,F,]8 | [A,,A,]2 [A,,A,]2 [B,,=G,]2 [D,G,]2 | %9
 [C,A,]2 [A,,A,]2 [D,A,]4 | [E,A,]2 [E,A,]2 [E,A,]2 [E,=G,]2 | (A,4 G,4) | %12
 [D,F,]2 [D,G,]2 [D,A,]2 [D,G,]2 | [D,F,]2 [D,_C]2 [G,,G,B,]4 | %14
 [A,,A,D]2 [A,,B,]2 [A,,A,]2 [A,,G,]2 | [D,F,]8 |] %16
V:4
 x8 | x8 | x8 | x8 | x8 | x8 | x8 | x8 | x8 | x8 | x8 | A,,8 | x8 | x8 | x8 | x8 |] %16

